svg/u1f688.svg

<svg viewBox="0 0 128 128" xmlns="http://www.w3.org/2000/svg">
  <line fill="none" stroke="#607D8B" stroke-width="3" stroke-miterlimit="10" x1="4" x2="124" y1="5.5" y2="5.5"/>
  <g>
    <rect height="3.99" fill="#607D8B" width="13.81" x="57.73" y="30.32"/>
    <path d="M76.63,31.48h-24c-1,0-1.81-0.81-1.81-1.81V29.5c0-1,0.81-1.81,1.81-1.81h24 c1,0,1.81,0.81,1.81,1.81v0.17C78.44,30.67,77.63,31.48,76.63,31.48z" fill="#82AEC0"/>
    <path d="M74.74,30.27" fill="none" stroke="#82AEC0" stroke-width="2" stroke-miterlimit="10"/>
    <path d="M65.87,29.37l11.06-10.61 c0.42-0.41,0.43-1.09,0.02-1.51L63.62,5.65" fill="none" stroke="#82AEC0" stroke-width="3" stroke-miterlimit="10"/>
    <polygon points="62.65,6.79 67.38,10.94 69.58,8.89 64.6,4.55 " fill="#607D8B"/>
    <polygon points="74.06,15.62 74.06,20.19 76.28,17.9 " fill="#82AEC0"/>
    <path d="M63.39,29.37L52.33,18.76 c-0.42-0.41-0.43-1.09-0.02-1.51l13.33-11.6" fill="none" stroke="#82AEC0" stroke-width="3" stroke-miterlimit="10"/>
    <polygon points="66.62,6.79 61.89,10.94 59.69,8.89 64.66,4.55 " fill="#607D8B"/>
    <polygon points="55.2,15.62 55.2,20.19 52.99,17.9 " fill="#82AEC0"/>
    <path d="M67.12,8.71h-4.97c-0.61,0-1.1-0.49-1.1-1.1V3.69c0-0.61,0.49-1.1,1.1-1.1h4.97 c0.61,0,1.1,0.49,1.1,1.1v3.92C68.21,8.21,67.72,8.71,67.12,8.71z" fill="#82AEC0"/>
  </g>
  <g>
    <path d="M37.91,33.86c-6.97-0.01-16.45,2.8-22.14,12.61C3.31,67.95,4.4,98.79,4.4,98.79 s-0.02,2.65,2.35,4.58l6.56,5.93l-8.14,8.47c-1.72,1.63-1.29,2.33-1.29,2.33c0,2.16,1.75,3.91,3.91,3.91H124v-11.68v-3.02V33.98 C110.54,33.99,64.52,33.9,37.91,33.86z" fill="#E0E0E0"/>
    <path d="M60.24,51.67c0,0-5.74,2.94-11.16,10.47S39.82,78.4,39.82,78.4H124v-27.1L60.24,51.67z" fill="#BAE2FD"/>
    <path d="M98.25,76.57c-0.61,0-1.11-0.5-1.11-1.11V54.99c0-0.61,0.5-1.11,1.11-1.11H124v-4.12H62.89 c-3.18,0-5.91,0.24-9.63,4.12C47.78,59.6,41.59,69.44,38.5,75.05c-1.11,2.01-1.05,5.65,3.56,5.65H124v-4.12H98.25z M61.32,75.46 c0,0.61-0.5,1.11-1.11,1.11H44.77c-0.83,0-1.38-0.87-1-1.61c0,0,8.05-15.54,15.07-20.36c1.15-0.79,2.47-0.81,2.47,0.42V75.46z M94.38,75.46c0,0.61-0.5,1.11-1.11,1.11H65.18c-0.61,0-1.11-0.5-1.11-1.11V54.99c0-0.61,0.5-1.11,1.11-1.11h28.09 c0.61,0,1.11,0.5,1.11,1.11V75.46z" fill="#37474F"/>
    <g>
      <path d="M22.27,79.26L40.1,43.79l-22.36-0.43c-0.73,0.92-1.42,1.92-2.05,3.02 C6.75,61.81,4.95,81.8,4.63,91.31C9.67,90.95,18.09,88.66,22.27,79.26z" fill="#BAE2FD"/>
      <path d="M26.08,77.68c7.95-16.31,13.84-25.83,15.19-27.92s3.13-5.2,2.39-7.1 c-0.48-1.24-0.75-2.32-4.79-2.32c-2.37,0-11.78,0-18.31,0c-1.79,1.62-3.44,3.61-4.85,6.04c-0.37,0.64-0.73,1.29-1.08,1.95h18.26 c0.9,0,1.42,1.01,0.89,1.74c0,0-5.67,10.87-12.52,23.17c-2.88,5.18-12.37,6.25-15.67,6.23c-1.26,9.99-0.99,15.97-0.99,15.97 s7.21,0.22,11.83-3.03C21.77,88.63,23.73,82.48,26.08,77.68z" fill="#37474F"/>
      <path d="M13.19,82.11c-1.56-0.49-3.42,0.97-4.15,3.28c-0.73,2.3-0.05,4.57,1.51,5.07 c1.56,0.49,3.42-0.97,4.15-3.28C15.43,84.87,14.76,82.6,13.19,82.11z" fill="#FFCA28"/>
      <path d="M15.95,45.97h13.12c0.92,0,1.66-0.74,1.66-1.66c0-0.92-0.74-1.66-1.66-1.66H18.32 C17.48,43.65,16.68,44.76,15.95,45.97z" fill="#FFCA28"/>
    </g>
    <path d="M9.34,120.8c-2.38,0-3.75-0.78-4.52-1.55c-0.35-0.35-0.95-0.13-0.95,0.37v0.47 c0,2.16,1.75,3.91,3.91,3.91H124v-3.2H9.34z" fill="#9E9E9E"/>
    <path d="M5.23,101.59c2.36,5.01,7.96,7.71,7.96,7.71H124v-7.71H5.23z" fill="#BDBDBD"/>
  </g>
</svg>

<svg viewBox="0 0 128 128" xmlns="http://www.w3.org/2000/svg">
  <defs/>
  <path d="M4,4 L124,4 L124,7 L4,7 L4,4 Z" fill="#607D8B"/>
  <path d="M57.73,30.32 L71.54,30.32 L71.54,34.31 L57.73,34.31 L57.73,30.32 Z" fill="#607D8B"/>
  <path d="M76.63,31.48 L52.63,31.48 C51.63,31.48 50.82,30.67 50.82,29.67 L50.82,29.5 C50.82,28.5 51.63,27.69 52.63,27.69 L76.63,27.69 C77.63,27.69 78.44,28.5 78.44,29.5 L78.44,29.67 C78.44,30.67 77.63,31.48 76.63,31.48 Z" fill="#82AEC0"/>
  <path d="M64.832,28.288 L75.542,18.013 L62.635,6.782 L64.605,4.518 L77.981,16.159 L78.023,16.202 Q78.766,16.963 78.751,18.029 Q78.737,19.093 77.968,19.842 L66.908,30.452 Z" fill="#82AEC0"/>
  <path d="M62.65,6.79 L67.38,10.94 L69.58,8.89 L64.6,4.55 Z" fill="#607D8B"/>
  <path d="M74.06,15.62 L74.06,20.19 L76.28,17.9 Z" fill="#82AEC0"/>
  <path d="M62.352,30.452 L51.292,19.842 Q50.523,19.093 50.509,18.029 Q50.494,16.963 51.237,16.202 L51.279,16.159 L64.655,4.518 L66.625,6.782 L53.718,18.013 L64.428,28.288 Z" fill="#82AEC0"/>
  <path d="M66.62,6.79 L61.89,10.94 L59.69,8.89 L64.66,4.55 Z" fill="#607D8B"/>
  <path d="M55.2,15.62 L55.2,20.19 L52.99,17.9 Z" fill="#82AEC0"/>
  <path d="M67.12,8.71 L62.15,8.71 C61.54,8.71 61.05,8.22 61.05,7.61 L61.05,3.69 C61.05,3.08 61.54,2.59 62.15,2.59 L67.12,2.59 C67.73,2.59 68.22,3.08 68.22,3.69 L68.22,7.61 C68.21,8.21 67.72,8.71 67.12,8.71 Z" fill="#82AEC0"/>
  <path d="M37.91,33.86 C30.94,33.85 21.46,36.66 15.77,46.47 C3.31,67.95 4.4,98.79 4.4,98.79 C4.4,98.79 4.38,101.44 6.75,103.37 L13.31,109.3 L5.17,117.77 C3.45,119.4 3.88,120.1 3.88,120.1 C3.88,122.26 5.63,124.01 7.79,124.01 L124,124.01 L124,112.33 L124,109.31 L124,33.98 C110.54,33.99 64.52,33.9 37.91,33.86 Z" fill="#E0E0E0"/>
  <path d="M60.24,51.67 C60.24,51.67 54.5,54.61 49.08,62.14 C43.66,69.67 39.82,78.4 39.82,78.4 L124,78.4 L124,51.3 L60.24,51.67 Z" fill="#BAE2FD"/>
  <path d="M98.25,76.57 C97.64,76.57 97.14,76.07 97.14,75.46 L97.14,54.99 C97.14,54.38 97.64,53.88 98.25,53.88 L124,53.88 L124,49.76 L62.89,49.76 C59.71,49.76 56.98,50 53.26,53.88 C47.78,59.6 41.59,69.44 38.5,75.05 C37.39,77.06 37.45,80.7 42.06,80.7 L124,80.7 L124,76.58 L98.25,76.58 Z M61.32,75.46 C61.32,76.07 60.82,76.57 60.21,76.57 L44.77,76.57 C43.94,76.57 43.39,75.7 43.77,74.96 C43.77,74.96 51.82,59.42 58.84,54.6 C59.99,53.81 61.31,53.79 61.31,55.02 L61.31,75.46 Z M94.38,75.46 C94.38,76.07 93.88,76.57 93.27,76.57 L65.18,76.57 C64.57,76.57 64.07,76.07 64.07,75.46 L64.07,54.99 C64.07,54.38 64.57,53.88 65.18,53.88 L93.27,53.88 C93.88,53.88 94.38,54.38 94.38,54.99 L94.38,75.46 Z" fill="#37474F"/>
  <path d="M22.27,79.26 L40.1,43.79 L17.74,43.36 C17.01,44.28 16.32,45.28 15.69,46.38 C6.75,61.81 4.95,81.8 4.63,91.31 C9.67,90.95 18.09,88.66 22.27,79.26 Z" fill="#BAE2FD"/>
  <path d="M26.08,77.68 C34.03,61.37 39.92,51.85 41.27,49.76 C42.62,47.67 44.4,44.56 43.66,42.66 C43.18,41.42 42.91,40.34 38.87,40.34 C36.5,40.34 27.09,40.34 20.56,40.34 C18.77,41.96 17.12,43.95 15.71,46.38 C15.34,47.02 14.98,47.67 14.63,48.33 L32.89,48.33 C33.79,48.33 34.31,49.34 33.78,50.07 C33.78,50.07 28.11,60.94 21.26,73.24 C18.38,78.42 8.89,79.49 5.59,79.47 C4.33,89.46 4.6,95.44 4.6,95.44 C4.6,95.44 11.81,95.66 16.43,92.41 C21.77,88.63 23.73,82.48 26.08,77.68 Z" fill="#37474F"/>
  <path d="M13.19,82.11 C11.63,81.62 9.77,83.08 9.04,85.39 C8.31,87.69 8.99,89.96 10.55,90.46 C12.11,90.95 13.97,89.49 14.7,87.18 C15.43,84.87 14.76,82.6 13.19,82.11 Z" fill="#FFCA28"/>
  <path d="M15.95,45.97 L29.07,45.97 C29.99,45.97 30.73,45.23 30.73,44.31 C30.73,43.39 29.99,42.65 29.07,42.65 L18.32,42.65 C17.48,43.65 16.68,44.76 15.95,45.97 Z" fill="#FFCA28"/>
  <path d="M9.34,120.8 C6.96,120.8 5.59,120.02 4.82,119.25 C4.47,118.9 3.87,119.12 3.87,119.62 L3.87,120.09 C3.87,122.25 5.62,124 7.78,124 L124,124 L124,120.8 L9.34,120.8 Z" fill="#9E9E9E"/>
  <path d="M5.23,101.59 C7.59,106.6 13.19,109.3 13.19,109.3 L124,109.3 L124,101.59 L5.23,101.59 Z" fill="#BDBDBD"/>
</svg>
